crates/lumit-colour/tests/refusals/luts/bumpy.spi1d
Version 1
From 0.0 1.0
Length 3
Components 1
{
0.0
1.0
0.5
}
