crates/lumit-colour/tests/refusals/builtin-style.ocio
# refuses: ACES-OUTPUT - ACES2065-1_to_CIE-XYZ-D65 - SDR-VIDEO_1.0
ocio_profile_version: 2
colorspaces:
  - !<ColorSpace>
    name: aces_output
    from_scene_reference: !<BuiltinTransform> {style: ACES-OUTPUT - ACES2065-1_to_CIE-XYZ-D65 - SDR-VIDEO_1.0}
