crates/lumit-colour/tests/refusals/context-variable.ocio
# refuses: context variables
ocio_profile_version: 2
colorspaces:
  - !<ColorSpace>
    name: per_shot
    to_scene_reference: !<FileTransform> {src: $SHOT/grade.spi1d}
