crates/lumit-colour/tests/refusals/display-view-transform.ocio
# refuses: DisplayViewTransform
ocio_profile_version: 2
colorspaces:
  - !<ColorSpace>
    name: viewed
    to_scene_reference: !<DisplayViewTransform> {src: a, display: sRGB, view: Standard}
