crates/lumit-colour/tests/refusals/grading-primary.ocio
# refuses: GradingPrimaryTransform
ocio_profile_version: 2
colorspaces:
  - !<ColorSpace>
    name: graded
    to_scene_reference: !<GradingPrimaryTransform> {style: log}
