crates/lumit-colour/tests/refusals/profile-version.ocio
# refuses: OCIO profile version 3
ocio_profile_version: 3
colorspaces:
  - !<ColorSpace>
    name: future
