crates/lumit-colour/tests/refusals/three-d-lut-inverse.ocio
# refuses: invert a 3D look-up table
ocio_profile_version: 1
search_path: luts
colorspaces:
  - !<ColorSpace>
    name: cubed
    from_reference: !<FileTransform> {src: tiny.spi3d}
